icon-themes/breeze_svg/cmd/lc_reload.svg

<svg viewBox="0 0 24 24" xmlns="http://www.w3.org/2000/svg"><path d="m12 4c-1.441714 0-2.7892891.3829219-3.9550781 1.0449219l.7382812.7382812c.0007601-.0003926.0011929-.0015607.0019531-.0019531l2.7792968 2.7773438.707031-.7070313-2.4824215-2.4804687c.6956235-.2326766 1.4348495-.3710938 2.2109375-.3710938 3.87797 0 7 3.122 7 7 0 1.1625-.285828 2.253897-.783203 3.216797l.738281.738281c.662051-1.1658 1.044922-2.513378 1.044922-3.955078 0-4.432-3.568034-8-8-8zm-6.9550781 4.0449219c-.662051 1.1658-1.0449219 2.5133781-1.0449219 3.9550781 0 4.432 3.568034 8 8 8 1.441714 0 2.789289-.382922 3.955078-1.044922l-.683594-.683594.001954-.001953-2.828126-2.828125-.707031.707032 2.478516 2.478515c-.6973.233921-1.438533.373047-2.216797.373047-3.87797 0-7-3.122-7-7 0-1.1625.2858291-2.2538969.7832031-3.2167969z" fill="#4d4d4d"/></svg>

<svg xmlns="http://www.w3.org/2000/svg" viewBox="0 0 24 24">
 <path 
     style="fill:#4d4d4d" 
     d="M 12 4 C 10.558286 4 9.2107109 4.3829219 8.0449219 5.0449219 L 8.7832031 5.7832031 C 8.7839632 5.7828105 8.784396 5.7816424 8.7851562 5.78125 L 11.564453 8.5585938 L 12.271484 7.8515625 L 9.7890625 5.3710938 C 10.484686 5.1384172 11.223912 5 12 5 C 15.87797 5 19 8.122 19 12 C 19 13.1625 18.714172 14.253897 18.216797 15.216797 L 18.955078 15.955078 C 19.617129 14.789278 20 13.4417 20 12 C 20 7.568 16.431966 4 12 4 z M 5.0449219 8.0449219 C 4.3828709 9.2107219 4 10.5583 4 12 C 4 16.432 7.568034 20 12 20 C 13.441714 20 14.789289 19.617078 15.955078 18.955078 L 15.271484 18.271484 L 15.273438 18.269531 L 12.445312 15.441406 L 11.738281 16.148438 L 14.216797 18.626953 C 13.519497 18.860874 12.778264 19 12 19 C 8.12203 19 5 15.878 5 12 C 5 10.8375 5.2858291 9.7461031 5.7832031 8.7832031 L 5.0449219 8.0449219 z "
     />
 </svg>
